X: 2046
T: Velocipede
R: jig
C: Rick Gagne
N: 1989 on bouzouki
M: 6/8
Q: 1/4=165
K: G
A | "G"GAB "C"cBc | "G"ded BAG | "D"F2d ^c2d | FGA "C"cAF | 
"G"GAB "C"cBc | "G"ded BAG | "D"F2e dBA | "G"GAB "C"c2 :|
g | "D"afe def | "G"gdB G2G | "A"A^cd e^cA | "D"dfg afd | 
"G"gdB GAB | "C"cde gec | "D"dfg afd | "G"gdB "C"e2 :|
